src/assets/logo_vector_black.svg

<svg width="385" height="183" viewBox="0 0 385 183" fill="none" xmlns="http://www.w3.org/2000/svg">
<path d="M0.345215 149.493H3.06415V171.428H9.82475V174H0.345215V149.493Z" fill="black"/>
<path d="M24.1689 168.893L26.3734 170.105C25.9325 170.95 25.2712 171.869 24.4996 172.567C23.1034 173.816 21.3765 174.441 19.4291 174.441C15.7549 174.441 11.897 172.126 11.897 166.468C11.897 161.912 14.6894 158.385 19.2822 158.385C22.2583 158.385 24.1322 159.854 25.0507 161.177C26.006 162.536 26.5572 164.888 26.4837 166.909H14.6159C14.6526 170.069 16.8204 172.089 19.4659 172.089C20.7151 172.089 21.7072 171.722 22.589 170.987C23.2871 170.399 23.8382 169.628 24.1689 168.893ZM14.7996 164.704H23.7647C23.3238 162.316 21.5235 160.736 19.2822 160.736C17.0409 160.736 15.2038 162.426 14.7996 164.704Z" fill="black"/>
<path d="M39.1173 174V158.752H41.7628V160.369C42.6078 159.119 43.9306 158.385 45.5472 158.385C48.3029 158.385 49.4052 160.332 49.6991 160.846C51.1688 158.531 53.2631 158.385 54.2919 158.385C58.8112 158.385 59.2521 162.169 59.2521 164.337V174H56.6067V164.741C56.6067 163.014 56.3862 160.736 53.8877 160.736C50.8381 160.736 50.5074 163.675 50.5074 165.513V174H47.862V164.961C47.862 163.896 47.8987 160.736 45.1063 160.736C42.0934 160.736 41.7628 163.859 41.7628 165.696V174H39.1173Z" fill="black"/>
<path d="M75.5867 168.893L77.7912 170.105C77.3503 170.95 76.689 171.869 75.9174 172.567C74.5212 173.816 72.7943 174.441 70.8469 174.441C67.1727 174.441 63.3147 172.126 63.3147 166.468C63.3147 161.912 66.1072 158.385 70.7 158.385C73.6761 158.385 75.5499 159.854 76.4685 161.177C77.4238 162.536 77.9749 164.888 77.9015 166.909H66.0337C66.0704 170.069 68.2382 172.089 70.8837 172.089C72.1329 172.089 73.1249 171.722 74.0068 170.987C74.7049 170.399 75.256 169.628 75.5867 168.893ZM66.2174 164.704H75.1825C74.7416 162.316 72.9412 160.736 70.7 160.736C68.4587 160.736 66.6215 162.426 66.2174 164.704Z" fill="black"/>
<path d="M84.6049 158.752V167.644C84.6049 168.709 84.6049 169.958 85.3398 170.914C85.7439 171.428 86.5523 172.089 88.022 172.089C89.4917 172.089 90.3 171.428 90.7042 170.914C91.439 169.958 91.439 168.709 91.439 167.644V158.752H94.0844V167.938C94.0844 169.811 93.9007 171.208 92.6882 172.53C91.3288 173.963 89.5284 174.441 88.022 174.441C86.5155 174.441 84.7151 173.963 83.3557 172.53C82.1432 171.208 81.9595 169.811 81.9595 167.938V158.752H84.6049Z" fill="black"/>
<path d="M101.72 171.869V174H99.0748V147.215H101.72V160.883C103.521 158.642 105.835 158.385 106.938 158.385C111.714 158.385 114.36 162.353 114.36 166.468C114.36 170.656 111.677 174.441 107.048 174.441C104.586 174.441 102.859 173.339 101.72 171.869ZM106.68 172.089C109.767 172.089 111.641 169.517 111.641 166.468C111.641 162.72 109.105 160.736 106.644 160.736C104.182 160.736 101.573 162.757 101.573 166.431C101.573 169.554 103.557 172.089 106.68 172.089Z" fill="black"/>
<path d="M118.415 147.215H121.06V174H118.415V147.215Z" fill="black"/>
<path d="M137.374 168.893L139.579 170.105C139.138 170.95 138.476 171.869 137.705 172.567C136.309 173.816 134.582 174.441 132.634 174.441C128.96 174.441 125.102 172.126 125.102 166.468C125.102 161.912 127.895 158.385 132.487 158.385C135.464 158.385 137.337 159.854 138.256 161.177C139.211 162.536 139.762 164.888 139.689 166.909H127.821C127.858 170.069 130.026 172.089 132.671 172.089C133.92 172.089 134.912 171.722 135.794 170.987C136.492 170.399 137.043 169.628 137.374 168.893ZM128.005 164.704H136.97C136.529 162.316 134.729 160.736 132.487 160.736C130.246 160.736 128.409 162.426 128.005 164.704Z" fill="black"/>
<path d="M154.968 171.869V182.451H152.323V158.752H154.968V160.883C156.768 158.642 159.083 158.385 160.185 158.385C164.962 158.385 167.607 162.353 167.607 166.468C167.607 170.656 164.925 174.441 160.296 174.441C157.834 174.441 156.107 173.339 154.968 171.869ZM159.928 172.089C163.015 172.089 164.888 169.517 164.888 166.468C164.888 162.72 162.353 160.736 159.891 160.736C157.43 160.736 154.821 162.757 154.821 166.431C154.821 169.554 156.805 172.089 159.928 172.089Z" fill="black"/>
<path d="M178.791 174.441C174.161 174.441 170.707 171.061 170.707 166.431C170.707 161.802 174.124 158.385 178.791 158.385C183.457 158.385 186.874 161.802 186.874 166.431C186.874 171.061 183.42 174.441 178.791 174.441ZM178.791 160.736C175.998 160.736 173.426 162.72 173.426 166.431C173.426 170.179 176.072 172.089 178.791 172.089C181.546 172.089 184.155 170.142 184.155 166.431C184.155 162.683 181.583 160.736 178.791 160.736Z" fill="black"/>
<path d="M193.576 158.752V167.644C193.576 168.709 193.576 169.958 194.311 170.914C194.715 171.428 195.524 172.089 196.993 172.089C198.463 172.089 199.271 171.428 199.675 170.914C200.41 169.958 200.41 168.709 200.41 167.644V158.752H203.056V167.938C203.056 169.811 202.872 171.208 201.66 172.53C200.3 173.963 198.5 174.441 196.993 174.441C195.487 174.441 193.686 173.963 192.327 172.53C191.114 171.208 190.931 169.811 190.931 167.938V158.752H193.576Z" fill="black"/>
<path d="M208.046 174V158.752H210.692V160.405C210.949 160.001 212.088 158.385 214.145 158.385C214.954 158.385 215.835 158.678 216.497 159.009L215.248 161.397C214.66 160.993 214.109 160.883 213.704 160.883C212.639 160.883 211.977 161.324 211.573 161.838C211.132 162.426 210.692 163.455 210.692 165.953V174H208.046Z" fill="black"/>
<path d="M227.494 147.215H230.139V174H227.494V147.215Z" fill="black"/>
<path d="M246.453 168.893L248.658 170.105C248.217 170.95 247.555 171.869 246.784 172.567C245.387 173.816 243.661 174.441 241.713 174.441C238.039 174.441 234.181 172.126 234.181 166.468C234.181 161.912 236.973 158.385 241.566 158.385C244.542 158.385 246.416 159.854 247.335 161.177C248.29 162.536 248.841 164.888 248.768 166.909H236.9C236.937 170.069 239.105 172.089 241.75 172.089C242.999 172.089 243.991 171.722 244.873 170.987C245.571 170.399 246.122 169.628 246.453 168.893ZM237.084 164.704H246.049C245.608 162.316 243.808 160.736 241.566 160.736C239.325 160.736 237.488 162.426 237.084 164.704Z" fill="black"/>
<path d="M264.047 171.869V174H261.401V147.215H264.047V160.883C265.847 158.642 268.162 158.385 269.264 158.385C274.041 158.385 276.686 162.353 276.686 166.468C276.686 170.656 274.004 174.441 269.374 174.441C266.913 174.441 265.186 173.339 264.047 171.869ZM269.007 172.089C272.093 172.089 273.967 169.517 273.967 166.468C273.967 162.72 271.432 160.736 268.97 160.736C266.509 160.736 263.9 162.757 263.9 166.431C263.9 169.554 265.884 172.089 269.007 172.089Z" fill="black"/>
<path d="M280.741 158.752H283.387V174H280.741V158.752ZM280.19 152.983C280.19 151.955 281.035 151.11 282.064 151.11C283.093 151.11 283.938 151.955 283.938 152.983C283.938 154.012 283.093 154.857 282.064 154.857C281.035 154.857 280.19 154.012 280.19 152.983Z" fill="black"/>
<path d="M299.701 168.893L301.905 170.105C301.464 170.95 300.803 171.869 300.031 172.567C298.635 173.816 296.908 174.441 294.961 174.441C291.287 174.441 287.429 172.126 287.429 166.468C287.429 161.912 290.221 158.385 294.814 158.385C297.79 158.385 299.664 159.854 300.583 161.177C301.538 162.536 302.089 164.888 302.016 166.909H290.148C290.185 170.069 292.352 172.089 294.998 172.089C296.247 172.089 297.239 171.722 298.121 170.987C298.819 170.399 299.37 169.628 299.701 168.893ZM290.331 164.704H299.297C298.856 162.316 297.055 160.736 294.814 160.736C292.573 160.736 290.736 162.426 290.331 164.704Z" fill="black"/>
<path d="M306.074 174V158.752H308.719V160.516C309.197 159.891 310.556 158.385 313.091 158.385C314.892 158.385 316.545 159.119 317.464 160.479C318.235 161.618 318.345 162.867 318.345 164.557V174H315.7V164.631C315.7 163.712 315.627 162.647 315.002 161.838C314.488 161.177 313.679 160.736 312.503 160.736C311.585 160.736 310.593 160.993 309.821 161.912C308.792 163.124 308.719 164.925 308.719 166.027V174H306.074Z" fill="black"/>
<path d="M322.671 167.533V164.814H330.754V167.533H322.671Z" fill="black"/>
<path d="M346.418 168.893L348.623 170.105C348.182 170.95 347.52 171.869 346.749 172.567C345.353 173.816 343.626 174.441 341.678 174.441C338.004 174.441 334.146 172.126 334.146 166.468C334.146 161.912 336.939 158.385 341.531 158.385C344.507 158.385 346.381 159.854 347.3 161.177C348.255 162.536 348.806 164.888 348.733 166.909H336.865C336.902 170.069 339.07 172.089 341.715 172.089C342.964 172.089 343.956 171.722 344.838 170.987C345.536 170.399 346.087 169.628 346.418 168.893ZM337.049 164.704H346.014C345.573 162.316 343.773 160.736 341.531 160.736C339.29 160.736 337.453 162.426 337.049 164.704ZM341.495 152.763L338.114 155.739L336.424 154.416L341.495 149.971L346.565 154.416L344.875 155.739L341.495 152.763Z" fill="black"/>
<path d="M358.155 161.177H355.51V174H352.864V161.177H351.248V158.752H352.864V153.241H355.51V158.752H358.155V161.177Z" fill="black"/>
<path d="M360.649 174V158.752H363.294V160.405C363.551 160.001 364.69 158.385 366.748 158.385C367.556 158.385 368.438 158.678 369.1 159.009L367.85 161.397C367.262 160.993 366.711 160.883 366.307 160.883C365.242 160.883 364.58 161.324 364.176 161.838C363.735 162.426 363.294 163.455 363.294 165.953V174H360.649Z" fill="black"/>
<path d="M381.94 168.893L384.145 170.105C383.704 170.95 383.043 171.869 382.271 172.567C380.875 173.816 379.148 174.441 377.201 174.441C373.526 174.441 369.669 172.126 369.669 166.468C369.669 161.912 372.461 158.385 377.054 158.385C380.03 158.385 381.904 159.854 382.822 161.177C383.778 162.536 384.329 164.888 384.255 166.909H372.387C372.424 170.069 374.592 172.089 377.237 172.089C378.487 172.089 379.479 171.722 380.361 170.987C381.059 170.399 381.61 169.628 381.94 168.893ZM372.571 164.704H381.536C381.095 162.316 379.295 160.736 377.054 160.736C374.812 160.736 372.975 162.426 372.571 164.704Z" fill="black"/>
<path d="M103.321 112.332C100.008 114.509 95.7954 116.545 90.6834 118.438C85.6661 120.237 80.1754 121.136 74.2114 121.136C63.7034 121.136 54.4261 118.817 46.3794 114.178C38.4274 109.539 32.2741 103.291 27.9194 95.434C23.6594 87.5767 21.5294 78.9147 21.5294 69.448C21.5294 59.3187 23.7067 50.2307 28.0614 42.184C32.4161 34.0427 38.4274 27.7 46.0954 23.156C53.8581 18.5174 62.6147 16.198 72.3654 16.198C78.1401 16.198 83.5361 16.9554 88.5534 18.47C93.5707 19.9847 98.0674 21.9727 102.043 24.434L96.5054 37.356C88.6481 32.0547 80.7434 29.404 72.7914 29.404C66.1647 29.404 60.0114 31.1554 54.3314 34.658C48.7461 38.1607 44.2494 42.9414 40.8414 49C37.5281 54.964 35.8714 61.5434 35.8714 68.738C35.8714 76.122 37.3861 82.796 40.4154 88.76C43.5394 94.724 47.9414 99.41 53.6214 102.818C59.3961 106.131 66.0227 107.788 73.5014 107.788C82.6841 107.788 90.6834 105.185 97.4994 99.978L103.321 112.332Z" fill="black"/>
<path d="M154.063 58.94C159.554 58.94 164.098 60.5967 167.695 63.91C171.292 67.1287 173.138 71.3414 173.233 76.548V120H159.885V81.092C159.696 77.7787 158.702 75.1754 156.903 73.282C155.104 71.3887 152.406 70.3947 148.809 70.3C145.401 70.3 142.324 71.2467 139.579 73.14C136.834 75.0334 134.656 77.684 133.047 81.092C131.532 84.5 130.775 88.2867 130.775 92.452V120H117.569V9.95002H130.491V71.862C132.668 67.9807 135.792 64.8567 139.863 62.49C144.028 60.1234 148.762 58.94 154.063 58.94Z" fill="black"/>
<path d="M203.583 61.212V120H190.377V61.212H203.583ZM189.383 40.054C189.383 37.9713 190.188 36.22 191.797 34.8C193.407 33.38 195.253 32.67 197.335 32.67C199.418 32.67 201.217 33.38 202.731 34.8C204.341 36.22 205.145 37.9713 205.145 40.054C205.145 42.1367 204.341 43.888 202.731 45.308C201.217 46.728 199.418 47.438 197.335 47.438C195.253 47.438 193.407 46.728 191.797 45.308C190.188 43.888 189.383 42.1367 189.383 40.054Z" fill="black"/>
<path d="M234.097 9.95002V120H220.891V9.95002H234.097Z" fill="black"/>
<path d="M264.61 61.212V120H251.404V61.212H264.61ZM250.41 40.054C250.41 37.9713 251.215 36.22 252.824 34.8C254.433 33.38 256.279 32.67 258.362 32.67C260.445 32.67 262.243 33.38 263.758 34.8C265.367 36.22 266.172 37.9713 266.172 40.054C266.172 42.1367 265.367 43.888 263.758 45.308C262.243 46.728 260.445 47.438 258.362 47.438C256.279 47.438 254.433 46.728 252.824 45.308C251.215 43.888 250.41 42.1367 250.41 40.054Z" fill="black"/>
<path d="M286.745 72.998H276.663V61.07H286.745V36.362C286.745 27.842 288.686 21.31 292.568 16.766C296.449 12.222 302.129 9.95002 309.607 9.95002C311.69 9.95002 313.915 10.2814 316.281 10.944C318.648 11.512 320.731 12.364 322.529 13.5L316.849 23.156C315.429 21.6414 313.441 20.884 310.885 20.884C307.288 20.884 304.543 22.1147 302.65 24.576C300.851 27.0373 299.951 31.0134 299.951 36.504V61.07H318.695V72.998H299.951V120H286.745V72.998Z" fill="black"/>
<path d="M349.209 35.368V61.354H365.255V71.862H349.209V120H335.861V71.862H325.069V61.354H335.861V35.368H349.209Z" fill="black"/>
<path d="M360.568 2.34592H356.379V0.359558H367.105V2.34592H362.916V13H360.568V2.34592Z" fill="black"/>
<path d="M379.756 13L379.738 4.6212L375.584 11.5554H374.537L370.384 4.72955V13H368.145V0.359558H370.077L375.097 8.73838L380.027 0.359558H381.959L381.977 13H379.756Z" fill="black"/>
</svg>

<?xml version="1.0" encoding="utf-8"?>
<!-- Generator: Adobe Illustrator 27.2.0, SVG Export Plug-In . SVG Version: 6.00 Build 0)  -->
<svg version="1.1" id="Layer_1" xmlns="http://www.w3.org/2000/svg" xmlns:xlink="http://www.w3.org/1999/xlink" x="0px" y="0px"
	 viewBox="0 0 385 182.5" style="enable-background:new 0 0 385 182.5;" xml:space="preserve">
<path d="M0.3,149.5h2.7v21.9h6.8v2.6H0.3V149.5z"/>
<path d="M24.2,168.9l2.2,1.2c-0.4,0.8-1.1,1.8-1.9,2.5c-1.4,1.2-3.1,1.9-5.1,1.9c-3.7,0-7.5-2.3-7.5-8c0-4.6,2.8-8.1,7.4-8.1
	c3,0,4.9,1.5,5.8,2.8c1,1.4,1.5,3.7,1.4,5.7H14.6c0,3.2,2.2,5.2,4.9,5.2c1.2,0,2.2-0.4,3.1-1.1C23.3,170.4,23.8,169.6,24.2,168.9z
	 M14.8,164.7h9c-0.4-2.4-2.2-4-4.5-4S15.2,162.4,14.8,164.7z"/>
<path d="M39.1,174v-15.2h2.6v1.6c0.8-1.2,2.2-2,3.8-2c2.8,0,3.9,1.9,4.2,2.5c1.5-2.3,3.6-2.5,4.6-2.5c4.5,0,5,3.8,5,6v9.7h-2.6v-9.3
	c0-1.7-0.2-4-2.7-4c-3,0-3.4,2.9-3.4,4.8v8.5h-2.6v-9c0-1.1,0-4.2-2.8-4.2c-3,0-3.3,3.1-3.3,5v8.3H39.1z"/>
<path d="M75.6,168.9l2.2,1.2c-0.4,0.8-1.1,1.8-1.9,2.5c-1.4,1.2-3.1,1.9-5.1,1.9c-3.7,0-7.5-2.3-7.5-8c0-4.6,2.8-8.1,7.4-8.1
	c3,0,4.8,1.5,5.8,2.8c1,1.4,1.5,3.7,1.4,5.7H66c0,3.2,2.2,5.2,4.8,5.2c1.2,0,2.2-0.4,3.1-1.1C74.7,170.4,75.3,169.6,75.6,168.9z
	 M66.2,164.7h9c-0.4-2.4-2.2-4-4.5-4C68.5,160.7,66.6,162.4,66.2,164.7z"/>
<path d="M84.6,158.8v8.9c0,1.1,0,2.3,0.7,3.3c0.4,0.5,1.2,1.2,2.7,1.2c1.5,0,2.3-0.7,2.7-1.2c0.7-1,0.7-2.2,0.7-3.3v-8.9h2.6v9.2
	c0,1.9-0.2,3.3-1.4,4.6c-1.4,1.4-3.2,1.9-4.7,1.9c-1.5,0-3.3-0.5-4.7-1.9c-1.2-1.3-1.4-2.7-1.4-4.6v-9.2H84.6z"/>
<path d="M101.7,171.9v2.1h-2.6v-26.8h2.6v13.7c1.8-2.2,4.1-2.5,5.2-2.5c4.8,0,7.4,4,7.4,8.1c0,4.2-2.7,8-7.3,8
	C104.6,174.4,102.9,173.3,101.7,171.9z M106.7,172.1c3.1,0,5-2.6,5-5.6c0-3.7-2.5-5.7-5-5.7c-2.5,0-5.1,2-5.1,5.7
	C101.6,169.6,103.6,172.1,106.7,172.1z"/>
<path d="M118.4,147.2h2.6V174h-2.6V147.2z"/>
<path d="M137.4,168.9l2.2,1.2c-0.4,0.8-1.1,1.8-1.9,2.5c-1.4,1.2-3.1,1.9-5.1,1.9c-3.7,0-7.5-2.3-7.5-8c0-4.6,2.8-8.1,7.4-8.1
	c3,0,4.9,1.5,5.8,2.8c1,1.4,1.5,3.7,1.4,5.7h-11.9c0,3.2,2.2,5.2,4.9,5.2c1.2,0,2.2-0.4,3.1-1.1C136.5,170.4,137,169.6,137.4,168.9z
	 M128,164.7h9c-0.4-2.4-2.2-4-4.5-4C130.2,160.7,128.4,162.4,128,164.7z"/>
<path d="M155,171.9v10.6h-2.6v-23.7h2.6v2.1c1.8-2.2,4.1-2.5,5.2-2.5c4.8,0,7.4,4,7.4,8.1c0,4.2-2.7,8-7.3,8
	C157.8,174.4,156.1,173.3,155,171.9z M159.9,172.1c3.1,0,5-2.6,5-5.6c0-3.7-2.5-5.7-5-5.7c-2.5,0-5.1,2-5.1,5.7
	C154.8,169.6,156.8,172.1,159.9,172.1z"/>
<path d="M178.8,174.4c-4.6,0-8.1-3.4-8.1-8c0-4.6,3.4-8,8.1-8c4.7,0,8.1,3.4,8.1,8C186.9,171.1,183.4,174.4,178.8,174.4z
	 M178.8,160.7c-2.8,0-5.4,2-5.4,5.7c0,3.7,2.6,5.7,5.4,5.7c2.8,0,5.4-1.9,5.4-5.7C184.2,162.7,181.6,160.7,178.8,160.7z"/>
<path d="M193.6,158.8v8.9c0,1.1,0,2.3,0.7,3.3c0.4,0.5,1.2,1.2,2.7,1.2c1.5,0,2.3-0.7,2.7-1.2c0.7-1,0.7-2.2,0.7-3.3v-8.9h2.6v9.2
	c0,1.9-0.2,3.3-1.4,4.6c-1.4,1.4-3.2,1.9-4.7,1.9c-1.5,0-3.3-0.5-4.7-1.9c-1.2-1.3-1.4-2.7-1.4-4.6v-9.2H193.6z"/>
<path d="M208,174v-15.2h2.6v1.7c0.3-0.4,1.4-2,3.5-2c0.8,0,1.7,0.3,2.4,0.6l-1.2,2.4c-0.6-0.4-1.1-0.5-1.5-0.5c-1.1,0-1.7,0.4-2.1,1
	c-0.4,0.6-0.9,1.6-0.9,4.1v8H208z"/>
<path d="M227.5,147.2h2.6V174h-2.6V147.2z"/>
<path d="M246.5,168.9l2.2,1.2c-0.4,0.8-1.1,1.8-1.9,2.5c-1.4,1.2-3.1,1.9-5.1,1.9c-3.7,0-7.5-2.3-7.5-8c0-4.6,2.8-8.1,7.4-8.1
	c3,0,4.9,1.5,5.8,2.8c1,1.4,1.5,3.7,1.4,5.7h-11.9c0,3.2,2.2,5.2,4.9,5.2c1.2,0,2.2-0.4,3.1-1.1
	C245.6,170.4,246.1,169.6,246.5,168.9z M237.1,164.7h9c-0.4-2.4-2.2-4-4.5-4C239.3,160.7,237.5,162.4,237.1,164.7z"/>
<path d="M264,171.9v2.1h-2.6v-26.8h2.6v13.7c1.8-2.2,4.1-2.5,5.2-2.5c4.8,0,7.4,4,7.4,8.1c0,4.2-2.7,8-7.3,8
	C266.9,174.4,265.2,173.3,264,171.9z M269,172.1c3.1,0,5-2.6,5-5.6c0-3.7-2.5-5.7-5-5.7c-2.5,0-5.1,2-5.1,5.7
	C263.9,169.6,265.9,172.1,269,172.1z"/>
<path d="M280.7,158.8h2.6V174h-2.6V158.8z M280.2,153c0-1,0.8-1.9,1.9-1.9s1.9,0.8,1.9,1.9c0,1-0.8,1.9-1.9,1.9S280.2,154,280.2,153
	z"/>
<path d="M299.7,168.9l2.2,1.2c-0.4,0.8-1.1,1.8-1.9,2.5c-1.4,1.2-3.1,1.9-5.1,1.9c-3.7,0-7.5-2.3-7.5-8c0-4.6,2.8-8.1,7.4-8.1
	c3,0,4.9,1.5,5.8,2.8c1,1.4,1.5,3.7,1.4,5.7h-11.9c0,3.2,2.2,5.2,4.8,5.2c1.2,0,2.2-0.4,3.1-1.1
	C298.8,170.4,299.4,169.6,299.7,168.9z M290.3,164.7h9c-0.4-2.4-2.2-4-4.5-4S290.7,162.4,290.3,164.7z"/>
<path d="M306.1,174v-15.2h2.6v1.8c0.5-0.6,1.8-2.1,4.4-2.1c1.8,0,3.5,0.7,4.4,2.1c0.8,1.1,0.9,2.4,0.9,4.1v9.4h-2.6v-9.4
	c0-0.9-0.1-2-0.7-2.8c-0.5-0.7-1.3-1.1-2.5-1.1c-0.9,0-1.9,0.3-2.7,1.2c-1,1.2-1.1,3-1.1,4.1v8H306.1z"/>
<path d="M322.7,167.5v-2.7h8.1v2.7H322.7z"/>
<path d="M346.4,168.9l2.2,1.2c-0.4,0.8-1.1,1.8-1.9,2.5c-1.4,1.2-3.1,1.9-5.1,1.9c-3.7,0-7.5-2.3-7.5-8c0-4.6,2.8-8.1,7.4-8.1
	c3,0,4.9,1.5,5.8,2.8c1,1.4,1.5,3.7,1.4,5.7h-11.9c0,3.2,2.2,5.2,4.9,5.2c1.2,0,2.2-0.4,3.1-1.1
	C345.5,170.4,346.1,169.6,346.4,168.9z M337,164.7h9c-0.4-2.4-2.2-4-4.5-4C339.3,160.7,337.5,162.4,337,164.7z M341.5,152.8l-3.4,3
	l-1.7-1.3l5.1-4.4l5.1,4.4l-1.7,1.3L341.5,152.8z"/>
<path d="M358.2,161.2h-2.6V174h-2.6v-12.8h-1.6v-2.4h1.6v-5.5h2.6v5.5h2.6V161.2z"/>
<path d="M360.6,174v-15.2h2.6v1.7c0.3-0.4,1.4-2,3.5-2c0.8,0,1.7,0.3,2.4,0.6l-1.2,2.4c-0.6-0.4-1.1-0.5-1.5-0.5
	c-1.1,0-1.7,0.4-2.1,1c-0.4,0.6-0.9,1.6-0.9,4.1v8H360.6z"/>
<path d="M381.9,168.9l2.2,1.2c-0.4,0.8-1.1,1.8-1.9,2.5c-1.4,1.2-3.1,1.9-5.1,1.9c-3.7,0-7.5-2.3-7.5-8c0-4.6,2.8-8.1,7.4-8.1
	c3,0,4.9,1.5,5.8,2.8c1,1.4,1.5,3.7,1.4,5.7h-11.9c0,3.2,2.2,5.2,4.9,5.2c1.2,0,2.2-0.4,3.1-1.1
	C381.1,170.4,381.6,169.6,381.9,168.9z M372.6,164.7h9c-0.4-2.4-2.2-4-4.5-4C374.8,160.7,373,162.4,372.6,164.7z"/>
<path d="M103.3,112.3c-3.3,2.2-7.5,4.2-12.6,6.1c-5,1.8-10.5,2.7-16.5,2.7c-10.5,0-19.8-2.3-27.8-7c-8-4.6-14.1-10.9-18.5-18.7
	c-4.3-7.9-6.4-16.5-6.4-26c0-10.1,2.2-19.2,6.5-27.3c4.4-8.1,10.4-14.5,18-19c7.8-4.6,16.5-7,26.3-7c5.8,0,11.2,0.8,16.2,2.3
	c5,1.5,9.5,3.5,13.5,6l-5.5,12.9c-7.9-5.3-15.8-8-23.7-8c-6.6,0-12.8,1.8-18.5,5.3c-5.6,3.5-10.1,8.3-13.5,14.3
	c-3.3,6-5,12.5-5,19.7c0,7.4,1.5,14.1,4.5,20c3.1,6,7.5,10.7,13.2,14.1c5.8,3.3,12.4,5,19.9,5c9.2,0,17.2-2.6,24-7.8L103.3,112.3z"
	/>
<path d="M154.1,58.9c5.5,0,10,1.7,13.6,5c3.6,3.2,5.4,7.4,5.5,12.6V120h-13.3V81.1c-0.2-3.3-1.2-5.9-3-7.8c-1.8-1.9-4.5-2.9-8.1-3
	c-3.4,0-6.5,0.9-9.2,2.8c-2.7,1.9-4.9,4.5-6.5,8c-1.5,3.4-2.3,7.2-2.3,11.4V120h-13.2V10h12.9v61.9c2.2-3.9,5.3-7,9.4-9.4
	C144,60.1,148.8,58.9,154.1,58.9z"/>
<path d="M203.6,61.2V120h-13.2V61.2H203.6z M189.4,40.1c0-2.1,0.8-3.8,2.4-5.3c1.6-1.4,3.5-2.1,5.5-2.1c2.1,0,3.9,0.7,5.4,2.1
	c1.6,1.4,2.4,3.2,2.4,5.3c0,2.1-0.8,3.8-2.4,5.3c-1.5,1.4-3.3,2.1-5.4,2.1c-2.1,0-3.9-0.7-5.5-2.1C190.2,43.9,189.4,42.1,189.4,40.1
	z"/>
<path d="M234.1,10v110h-13.2V10H234.1z"/>
<path d="M264.6,61.2V120h-13.2V61.2H264.6z M250.4,40.1c0-2.1,0.8-3.8,2.4-5.3c1.6-1.4,3.5-2.1,5.5-2.1s3.9,0.7,5.4,2.1
	c1.6,1.4,2.4,3.2,2.4,5.3c0,2.1-0.8,3.8-2.4,5.3c-1.5,1.4-3.3,2.1-5.4,2.1s-3.9-0.7-5.5-2.1C251.2,43.9,250.4,42.1,250.4,40.1z"/>
<path d="M286.7,73h-10.1V61.1h10.1V36.4c0-8.5,1.9-15.1,5.8-19.6c3.9-4.5,9.6-6.8,17-6.8c2.1,0,4.3,0.3,6.7,1
	c2.4,0.6,4.4,1.4,6.2,2.6l-5.7,9.7c-1.4-1.5-3.4-2.3-6-2.3c-3.6,0-6.3,1.2-8.2,3.7C300.9,27,300,31,300,36.5v24.6h18.7V73H300v47
	h-13.2V73z"/>
<path d="M349.2,35.4v26h16v10.5h-16V120h-13.3V71.9h-10.8V61.4h10.8v-26H349.2z"/>
<path d="M360.6,2.3h-4.2v-2h10.7v2h-4.2V13h-2.3V2.3z"/>
<path d="M379.8,13l0-8.4l-4.2,6.9h-1l-4.2-6.8V13h-2.2V0.4h1.9l5,8.4l4.9-8.4h1.9l0,12.6H379.8z"/>
</svg>
